Yaru++/actions/16/distribute-vertical-equal.svg

<svg viewBox="0 0 24 24" xmlns="http://www.w3.org/2000/svg">
  <path d="m8 4v6h-4v1h5 6 2v-1h-2v-6zm1 1h5v5h-5zm7 2 2 3 2-3zm-12 6v1h2v6h9v-6h2v-1h-3-8zm3 1h7v5h-7zm11 0-2 3h4z" fill="#808080"/>
</svg>

<svg xmlns="http://www.w3.org/2000/svg" viewBox="0 0 24 24">
 <defs>
  <style id="current-color-scheme" type="text/css">
   .ColorScheme-Text { color:#808080; }
  </style>
 </defs>
 <path style="fill:currentColor" class="ColorScheme-Text" d="M 8 4 L 8 10 L 4 10 L 4 11 L 9 11 L 15 11 L 17 11 L 17 10 L 15 10 L 15 4 L 8 4 z M 9 5 L 14 5 L 14 10 L 9 10 L 9 5 z M 16 7 L 18 10 L 20 7 L 16 7 z M 4 13 L 4 14 L 6 14 L 6 20 L 15 20 L 15 14 L 17 14 L 17 13 L 14 13 L 6 13 L 4 13 z M 7 14 L 14 14 L 14 19 L 7 19 L 7 14 z M 18 14 L 16 17 L 20 17 L 18 14 z"/>
</svg>
